X: 35306
T: Rose Tree, The
R: polka
M: 2/4
K: Cmajor
e/d/|:cAGE|G/A/G/E/G A/B/|cB/c/dc/d/|edde/d/|
cAGE|G/A/G/E/G A/B/|cB/c/dc/d/|1 edce/d/:|2 edcc/d/||
|:edef|gagf/e/|d aaa/b/|a dde/d/|
cAGE|G/A/G/E/G A/B/|cB/c/dc/d/|1 edcc/d/:|2 edc2||

